X: 1
T: The Lamb On The Lawn
R: reel
M: 4/4
L: 1/8
K: Ador
|EA (3AAA ABcd|eAAB AGED|EG (3GFG Bd (3d^cd|gedB AGED|
EA (3AAA ABcd|eAAB AGED|eg (3gfg agea|gedB BA A2:|
|:agea gede|gedB BA G2|agea gede|gedB BA A2|
agea gede|gedB BAGD|(3EFG AB cBce|gedB BA A2:|

composer: Sean Ryan
